X: 36292
T: Seamus Egan's
R: reel
M: 4/4
K: Gmajor
|:GFEG BEGB|EGBE cEBE|GFEG B3G|AF F2 DF F2|
GFEG BEGB|EGBE cEBE|G3B AGBG|A3B AGFA:|
|:G3A BDBA|GA (3Bcd eg g2|G3A AGBG|A3B AD D2|
G3A BDBA|GA (3Bcd eg g2|afge d3B|AGFG A2 AF:|

